packages/design-system/src/icons/assets/ic_festival_gray.svg

<svg width="50" height="50" viewBox="0 0 50 50" fill="none" xmlns="http://www.w3.org/2000/svg">
<g clip-path="url(#clip0_1056_9888)">
<path d="M50.0003 42.1121L44.6989 40.5833L49.9377 38.8418L49.2094 36.6274L43.9314 38.3768L47.283 33.9166L45.435 32.5061L41.9189 37.179V31.3162H40.7599H39.601V37.179L36.0849 32.5061L34.229 33.9166L37.5884 38.3768L32.3104 36.6274L31.5822 38.8418L36.821 40.5833L31.5195 42.1121L32.1538 44.3579L37.7451 42.7425L34.2447 47.4154L36.1006 48.8181L39.601 44.1452V50.0002H40.7599H41.9189V44.1452L45.4193 48.8181L47.2674 47.4154L43.7748 42.7425L49.3582 44.3579L50.0003 42.1121Z" fill="#D9DADD"/>
<path d="M16.6667 0H0V16.6667H16.6667V0Z" fill="#D9DADD"/>
<path d="M33.3434 16.6582H16.6768V33.3249H33.3434V16.6582Z" fill="#D9DADD"/>
<path d="M50.0104 -0.00854492H33.3438V16.6581H50.0104V-0.00854492Z" fill="#D9DADD"/>
<path d="M16.6667 33.325H0V49.9916H16.6667V33.325Z" fill="#D9DADD"/>
</g>
<defs>
<clipPath id="clip0_1056_9888">
<rect width="50" height="50" fill="white"/>
</clipPath>
</defs>
</svg>

<svg xmlns="http://www.w3.org/2000/svg" width="50" height="50" fill="none"><g fill="#D9DADD" clip-path="url(#a)"><path d="m50 42.112-5.3-1.529 5.239-1.741-.729-2.215-5.278 1.75 3.352-4.46-1.848-1.41-3.516 4.672v-5.863H39.6v5.863l-3.516-4.673-1.856 1.41 3.36 4.46-5.279-1.749-.728 2.215 5.239 1.741-5.301 1.53.634 2.245 5.591-1.615-3.5 4.672 1.856 1.403 3.5-4.673V50h2.318v-5.855l3.5 4.673 1.848-1.403-3.492-4.672 5.583 1.615zM16.667 0H0v16.667h16.667zm16.676 16.658H16.677v16.667h16.666zM50.01-.009H33.344v16.667H50.01zM16.667 33.325H0v16.667h16.667z"/></g><defs><clipPath id="a"><path fill="#fff" d="M0 0h50v50H0z"/></clipPath></defs></svg>
